X:1
T:Mulindhu, The
C:Joe Buchanan's Scottish Tome - Page 215.3
L:1/8
M:4/4
I:linebreak $
K:G
V:1 treble 
V:1
 a | edef g2 fe | dGdB dGdg | edef g2 fe | dBgB A2 A>a | edef g2 fe |$ dGdB dGdg | edef gage | %8
 cBgB A3 A |] a | eAed eAAB | dGdB dGGg |$ eAed eAAB | dGdB A2 A>a | eAed eAAB | dGdB cGdg | %16
 edef gbge | dBgB A2 A |] %18
